X:1
T:Breeze in Batz
C:Carole Ménard
R:Slip jig
M:9/8
K:Em
|: E2E GEG B2G | E2E GEG B2g |
   ged edB A2A |1 ged edB AGF :|2 ged edB AGE ||
   A2A AGE B2E | d2d BAG GFE | A2A AGE B2E | d2d AGF E2A- |
   A2A AGE B2E | d2d BAG GFE | A2A AGE AGE | B6-B3 |
